symbols/web/mobile_off/materialsymbolsoutlined/mobile_off_wght700grad200fill1_48px.svg

<svg xmlns="http://www.w3.org/2000/svg" height="48" width="48"><path d="M43.7 47.25.45 3.25 2.85.9l43.25 44ZM9 9.6l4.55 4.6V38h21.4l4 4v.4q.05 1.9-1.325 3.225Q36.25 46.95 34.4 46.95H13.55q-1.85 0-3.2-1.35T9 42.4Zm30-4v27.75l-4.55-4.6V10H16l-5.9-5.85v-.1q.1-1.35 1.2-2.175 1.1-.825 2.45-.825h20.7q1.8 0 3.175 1.35Q39 3.75 39 5.6Z"/></svg>

<svg xmlns="http://www.w3.org/2000/svg" height="48" width="48"><path d="M43.7 47.25 0.45 3.25 2.85 0.9 46.1 44.9ZM9 9.6 13.55 14.2V38H34.95L38.95 42V42.4Q39 44.3 37.625 45.625Q36.25 46.95 34.4 46.95H13.55Q11.7 46.95 10.35 45.6Q9 44.25 9 42.4ZM39 5.6V33.35L34.45 28.75V10H16L10.1 4.15V4.05Q10.2 2.7 11.3 1.875Q12.4 1.05 13.75 1.05H34.45Q36.25 1.05 37.625 2.4Q39 3.75 39 5.6Z"/></svg>
